X: 161
T: The sod of turf
C: anon.
O: Ireland
B: Francis O'Neill: "The Dance Music of Ireland" (1907) no. 161
R: Double jig
Z: Transcribed by Frank Nordberg - http://www.musicaviva.com
F: http://www.musicaviva.com/abc/tunes/ireland/oneill-1001/oneill-1001-016
1.abc
M: 6/8
L: 1/8
K: G
d|dcA AGE|c2A ABc|dcA AGF|DGG GBc|dcA AGE|c2A ABc|dcA fga|g2G G2:|
|:d|dcA f2g|aag f2d|dcA fga|g2G GBc|dcA f2g|aag f2d|dcA fga|g2G G2:|
W:
W:
W: From Musica Viva - http://www.musicaviva.com
W: the Internet center for free sheet music downloads.


